X:1
T:Czerny - The Art Oof Finger Dexterity
T:Czerny - The Art Of Finger Dexterity
T:3. Clearness in Rapidity
T:C.Czerny, Op. 740, Book 1
T:--
C:C.Czerny, Op. 740, Book 1
Z:--
%%score { 1 | ( 2 3 ) }
L:1/8
Q:1/4=130
M:4/4
K:D
V:1 treble nm="Piano" snm="Pno."
V:2 bass 
V:3 bass 
V:1
"D"!p! f/a/g/f/"A7" e/g/f/e/"D" d/f/e/d/"A7" e/g/f/e/ | %1
"D" f/a/g/f/"A7" e/g/f/e/"D" d/f/e/d/"A7" e/g/f/e/ | %2
"D" f/a/g/f/ e/d/c/d/"G" b/d'/c'/d'/ e'/d'/c'/b/ | %3
"D" a/a'/g'/f'/ e'/d'/c'/b/ a/^g/b/a/ =g/f/^e/f/ || %4
"A7" g/=e/A/a/"D" f/d/A/a/"A7" e/c/A/a/"D" f/d/A/a/ | %5
"A7" g/e/A/a/"D" f/d/A/a/"A7" e/c/A/a/"D" f/d/A/a/ | %6
"A7" g/e/e'/d'/ c'/b/a/g/"D" f/d/d'/c'/ b/a/g/f/ | %7
"A7" e/A/B/c/ d/e/f/g/!8va(! a/b/c'/d'/ e'/f'/a'/g'/ || %8
"D" f'/d'/a/a'/ g'/f'/e'/d'/"A7" c'/b/a/g/ f/e/d/c/ | %9
"D" d/A/B/c/ d/e/f/g/"A7" a/b/c'/d'/ e'/f'/a'/g'/ | %10
"D" f'/d'/a/a'/ g'/f'/e'/d'/"A7" c'/b/a/g/ f/e/d/c/ | %11
"D" d/A/B/c/ d/e/f/g/"A" a/b/c'/d'/ e'/f'/a'/g'/ | %12
"D""_cresc." f'/^e'/f'/a'/ g'/f'/=e'/d'/"E" ^g'/^^f'/g'/b'/ a'/g'/^f'/e'/ | %13
"A" e''/d''/c''/b'/ a'/^g'/f'/e'/!8va)!"Bm/D""_dim." d'/c'/b/a/ ^g/f/e/d/ | %14
"A/E" c/B/A/^G/ F/E/D/C/[K:bass]"E7" B,/A,/^G,/F,/ E,/D,/C,/B,,/ || %15
"A"!p! A,,/B,,/C,/D,/ E,/F,/^G,/A,/ E,/F,/G,/A,/ B,/C/D/E/ | %16
[K:treble]"Bm" D/d/c/B/ A/^G/F/E/"E7" D/C/B,/A,/ ^G,/B,/E/D/ | %17
"A""_cresc." C/B,/C/D/ E/F/^G/A/ E/F/G/A/ B/c/d/e/ | %18
"Bm" d/d'/c'/b/ a/^g/f/e/"E7" d/c/B/c/ d/e/f/g/ | %19
"A"!8va(!!<(! a/b/c'/d'/ e'/f'/^g'/a'/!<)!"E7" b'/c''/d''/b'/ g'/e'/d'/b/ | %20
"A"!<(! a/b/c'/d'/ e'/f'/^g'/a'/!<)!"E7" b'/c''/d''/b'/ g'/e'/d'/b/!8va)! | %21
"A"!ff! a/^g'/a'/e'/ c'/a/e/c/ A/^g/a/e/ c/A/E/C/ | A, z [Acea] z z4 :| %23
"A"!f! C/E/A/c/ e/c/A/E/ C/E/A/c/ e/c/A/E/ | %24
"A" C/E/A/c/"A7" e/c/A/E/"D/F#" d/A/F/D/"A/E" e/c/A/E/ | %25
"D" F/G/A/B/!<(! c/d/e/f/"A7" g/a/b/c'/ d'/e'/f'/g'/!<)! | %26
"D" a'/f'/d'/a/ f'/d'/a/f/ d'/a/f/d/ a/f/d/A/ ||"D" F/A/d/f/ a/f/d/A/ F/A/d/f/ a/f/d/A/ | %28
"D" F/A/d/f/"D7/C" a/f/d/A/"G/B" g/d/B/G/"D/A" a/f/d/A/ | %29
"G"!p! B/=c/d/e/ f/g/a/b/"D7"!8va(! =c'/d'/e'/f'/ g'/a'/b'/=c''/ | %30
"G" b'/a'/g'/f'/ e'/d'/=c'/b/"E7" d'/"G#dim"^c'/b/a/ ^g/f/e/d/ | %31
"A" c/d/e/f/ ^g/a/b/c'/"E7" d'/"_cresc."e'/f'/^g'/ a'/b'/c''/d''/ | %32
"A" c''/b'/a'/^g'/ f'/e'/d'/c'/"F#7" e'/"A#dim"d'/c'/b/ ^a/=g/f/e/ | %33
"Bm"!f! d/e/f/^g/ ^a/b/c'/d'/"F#7" e'/f'/^g'/^a'/ b'/c''/d''/e''/ | %34
"Bm" d''/c''/b'/=a'/ =g'/f'/e'/d'/"D7/A" =c'/d'/c'/b/ c'/e'/d'/c'/!8va)! || %35
"G""_dim." b/d'/=c'/b/"D7/A" a/c'/b/a/"G/B" g/b/a/g/"Adim" f/a/g/f/ | %36
"Em/G" e/g/f/e/"Adim" ^d/f/e/d/"Em/G" e/g/f/e/"E7/G#" =d/f/e/d/ || %37
"A"!p! ^c/e/d/c/ B/A/^G/A/ !>!c'/e'/d'/c'/ b/a/^g/a/ | %38
"D"!f! f'/!>(!e'/=g'/f'/ a'/g'/f'/e'/ d'/c'/b/a/ g/f/e/d/!>)! | %39
"A"!p! c/e/d/c/ B/A/^G/A/ c'/e'/d'/c'/ b/a/^g/a/ | %40
"D"!f! f'/!>(!e'/=g'/f'/ a'/g'/f'/e'/ d'/c'/b/a/ g/f/e/d/!>)! | %41
"A" c/d/e/d/ c/B/A/^G/ A/B/c/d/ e/f/=g/a/ | %42
"A7"!8va(!!<(! b/c'/d'/e'/ f'/g'/a'/!<)!b'/!>(! c''/a'/^d''/e''/ =d''/c''/b'/a'/!>)! | %43
"Cn/c""_dim." =g'/b'/a'/g'/ f'/a'/g'/f'/ e'/g'/f'/e'/ d'/f'/e'/d'/!8va)! | %44
 c'/e'/d'/c'/ b/d'/c'/b/ a/c'/b/a/ g/b/a/g/ || %45
"D"!p! f/a/g/f/"A7" e/g/f/e/"D" d/f/e/d/"A7" e/g/f/e/ | %46
"D" f/a/g/f/"A7" e/g/f/e/"D" d/f/e/d/"A7" e/g/f/e/ | %47
"D" f/a/g/f/ e/d/c/d/"G" b/d'/c'/d'/ e'/d'/c'/b/ | %48
"D" a/a'/g'/f'/ e'/d'/c'/b/ a/^g/b/a/ =g/f/^e/f/ | %49
"A7" g/=e/A/a/"D" f/d/A/a/"A7" e/c/A/a/"D" f/d/A/a/ | %50
"A7" g/e/A/a/"D" f/d/A/a/"A7" e/c/A/a/"D" f/d/A/a/ | %51
"A7" g/e/e'/d'/ c'/b/a/g/"D" f/d/d'/c'/ b/a/g/f/ | %52
"A" e/A/B/c/ d/e/f/g/!8va(! a/b/c'/d'/ e'/f'/a'/g'/ || %53
"D" f'/d'/a/a'/ g'/f'/e'/d'/"A7" c'/b/a/g/ f/e/d/c/ | %54
"D" d/e/f/g/ a/b/c'/d'/"D7" =c'/d'/e'/f'/ g'/a'/b'/=c''/ | %55
"G" b'/g'/d'/d''/ =c''/b'/a'/g'/"D7" f'/e'/d'/=c'/ b/a/g/f/ | %56
"G""_cresc." g/a/b/=c'/ d'/e'/f'/g'/"Em" f'/g'/b'/a'/ g'/f'/e'/d'/ | %57
"A"!f! ^c'/d'/e'/d'/ c'/b/a/b/"A7/G" c'/d'/e'/f'/ g'/a'/b'/c''/ | %58
"D/F#" d''/c''/b'/a'/ g'/f'/e'/d'/"G" b'/a'/g'/f'/ e'/d'/c'/b/ | %59
"D/A" a/a'/f'/d'/ a/f'/d'/a/!8va)!"_dim." f/d'/a/f/ d/a/f/d/ | %60
 A/f/d/A/ F/d/A/F/"A7" E/A/G/E/ C/G/E/C/ |"D"!p! D/A,/F/D/ A/G/F/E/ D/E/F/G/"_cresc." A/B/c/d/ | %62
"A" c/A/e/c/ g/f/e/d/ c/d/e/f/ g/a/b/c'/ | %63
"D/F#"!8va(! d'/a'/^g'/a'/ =g'/f'/e'/d'/"G" b'/^a'/b'/d''/ c''/b'/=a'/g'/!8va)! | %64
"D/A""_dim." f'/e'/d'/c'/ b/a/g/f/"A7" e/d/c/B/ A/G/F/E/ | %65
"D"!p! D/A,/F/D/ A/G/F/E/ D/E/F/G/"_cresc." A/B/c/d/ | c/"A7"A/e/c/ g/f/e/d/ c/d/e/f/ g/a/b/c'/ | %67
"D/F#"!8va(! d'/a'/^g'/a'/ =g'/f'/e'/d'/"G" b'/^a'/b'/d''/ c''/b'/=a'/g'/!8va)! | %68
"D/A" f'/e'/d'/c'/ b/a/g/f/"A7" e/d/c/B/ A/G/F/E/ | %69
"D" D/A,/D/F/ A/F/D/d/"A7""_cresc." c/A/c/e/ a/g/e/c/ | %70
"D" d/A/d/f/ a/f/d/d'/"A7"!8va(! c'/a/c'/e'/ a'/g'/e'/c'/ | %71
"D"!ff! d'/f'/a'/f'/ d''/a'/f'/d'/!8va)! a/f/d'/a/ f/d/A/F/ | %72
 D/A,/F,/A,/ D,/F,/A,/D/ F/A/d/f/!8va(! a/d'/f'/a'/ |"Dother" d''2 z2"Dother" [fad'f']2!8va)! z2 | %74
"Dother" [F,A,D]2 z2 z4 |] %75
V:2
 ([DF]2 .[A,E]) z .[F,D] z .[A,E] z | ([DF]2 .[A,E]) z .[F,D] z .[A,E] z | %2
 D, z [A,DF] z[K:treble] G, z [DGB] z | F, z [DFA] z[K:bass] D, z [A,DF] z || %4
[K:treble] (([A,EG]2 [DF])) z [A,CE] z [A,DF] z | (([A,EG]2 [DF])) z [A,CE] z [A,DF] z | %6
[K:bass] C, z [A,EG] z D, z [A,DF] z | A,, z [CE] z [A,C] z [CE] z || %8
 D, z [A,DF] z A,, z [A,CG] z | F, z [A,DF] z A,, z [A,CE] z | D, z [A,DF] z E, z [A,CG] z | %11
 F, z [A,DF] z A,, z [A,CE] z | D, z [F,A,D] z D, z [E,^G,B,] z | C, z [E,A,C] z D, z [F,B,D] z | %14
 E,, z [A,,C,E,] z E,, z ^G,, z || A,,,2 [E,,A,,]2 C,,2 [E,,C,]2 | %16
 B,,,2 [E,,B,,]2 E,,2 [B,,D,E,]2 | A,,2 [E,A,]2 C,2 [E,C]2 | B,,2 [E,B,]2 E,2 [B,E]2 | %19
 [A,CE]4 [^G,DE]4 | [A,CE]4 [^G,DE]4 | [A,C] z [A,,A,] z [E,,E,] z [C,,C,] z | %22
 [A,,,A,,] z [A,,C,E,A,] z z4 :| A,,,2 A,,2 C,2 E,2 | A,2 =G,2 F,2 E,2 | %25
 D, z [F,A,D] z E, z [G,A,C] z | D8 || (D,,2 D,2) F,2 A,2 | D2 =C2 B,2 A,2 | %29
 G, z [B,D] z F, z [A,D] z | G,2 [B,D]2 ^G,2 [B,E]2 | A,2 [CE]2 ^G,2 [B,E]2 | %32
 A,2 [CE]2 ^A,2 [CF]2 | B,2 [DF]2 ^A,2 [CF]2 | B,2 [DF]2 A,2 [DF]2 || %35
 [G,D] z [A,D] z [B,D] z [A,=C^D] z | [G,B,E] z [A,=C] z [G,B,] z [^G,B,] z || %37
 [A,,A,] z (A,2 [CE=G]2 A,2) | [D,D] z (A,2 [DF]2 A,2) | [A,,A,] z (A,2 [CE=G]2 A,2) | %40
 [D,D] z (A,2 [DF]2 A,2) | [A,,C,E,A,] z z2 [A,,,C,,E,,A,,] z z2 | z8 | z8 | z8 || %45
 ([DF]2 .[A,E]) z .[F,D] z .[A,E] z | ([DF]2 .[A,E]) z .[F,D] z .[A,E] z | %47
 D, z [A,DF] z[K:treble] G, z [DGB] z | F, z [DFA] z[K:bass] D, z [A,DF] z | %49
[K:treble] (([A,EG]2 [DF])) z [A,CE] z [A,DF] z | (([A,EG]2 [DF])) z [A,CE] z [A,DF] z | %51
[K:bass] C, z [A,EG] z D, z [A,DF] z | A,, z [CE] z [A,C] z [CE] z || %53
 D, z [A,DF] z A,, z [A,CG] z | F, z [A,DF] z G,, z [D,A,=C] z | %55
 G,, z [D,G,B,] z A,, z [D,F,=C] z | B,, z [D,G,B,] z [E,,E,] z [G,B,D] z | %57
 [A,,,A,,] z [A,,^C,E,] z [G,,,G,,] z [G,,A,,C,E,] z | %58
 [F,,,F,,] z [F,,A,,D,] z [G,,,G,,] z [G,,B,,D,] z | [A,,,A,,] z (A,,2 [D,F,A,]2 A,,2) | %60
 [A,,,A,,] z [A,,D,F,A,] z [A,,,A,,] z [A,,E,G,] z | D,2 A,,2 F,2 A,,2 | E,2 A,,2 G,2 A,,2 | %63
 F,2 [A,,D,]2 G,2 D,2 | A,, z [D,F,A,] z [A,,,A,,] z [A,,C,G,] z | D,2 A,,2 F,2 A,,2 | %66
 E,2 A,,2 G,2 A,,2 | F,2 D,2 G,2 D,2 | A,, z [D,F,A,] z [A,,,A,,] z [A,,C,G,] z | %69
 [D,,D,]2 [D,F,A,]2 [A,,,A,,]2 [A,,E,G,]2 | [D,,D,]2 [D,F,A,]2 [A,,,A,,]2 [A,,E,G,]2 | %71
 [D,,F,,A,,D,]8 | z2 D,,/F,,/A,,/D,/ F,/A,/D/F/[K:treble] A/d/f/a/ | d'2 z2[K:bass] [D,F,A,D]2 z2 | %74
 [D,,F,,A,,D,]2 z2 z4 |] %75
V:3
 x8 | x8 | x4[K:treble] x4 | x4[K:bass] x4 ||[K:treble] x8 | x8 |[K:bass] x8 | x8 || x8 | x8 | x8 | %11
 x8 | x8 | x8 | x8 || A,,,4 C,,4 | B,,,4 E,,4 | A,,4 C,4 | B,,4 E,4 | A,2 E,2 ^G,2 E,2 | %20
 A,2 E,2 ^G,2 E,2 | x8 | x8 :| z2 A,,6- | A,,8 | x8 | (F,2 A,2 F,2 D,2) || z2 D,6- | D,8 | %29
 G,4 F,4 | G,4 ^G,4 | A,4 ^G,4 | A,4 ^A,4 | B,4 ^A,4 | B,4 =A,4 || x8 | x8 || x8 | x8 | x8 | x8 | %41
 x8 | x8 | x8 | x8 || x8 | x8 | x4[K:treble] x4 | x4[K:bass] x4 |[K:treble] x8 | x8 |[K:bass] x8 | %52
 x8 || x8 | x8 | x8 | x8 | x8 | x8 | x8 | x8 | (D,,4 D,,4 | E,,4 E,,4 | F,,4 G,,4) | x8 | %65
 (D,,4 D,,4 | E,,4 E,,4 | F,,4 G,,4) | x8 | x8 | x8 | x8 | x6[K:treble] x2 | x4[K:bass] x4 | x8 |] %75

